X:1
T:Elise-Polka
L:1/16
Q:70
M:2/4
K:F
c2AB c=Bc2 | d2d2c4 | G2e2 e2d2 | d2c2 cBA2 | c2AB c=Bc2 | d2d2c4 | G2e2 c2e2 | f2f2 f2z2 :: BAB2 e2d2 |
A^GA2 d2c2 | e^de2 =d^cd2 | c=Bc2 A2A2 | BAB2 e2d2 | A^GA2 d2c2 | e^de2 B2G2 | F2Ac F2z2 :| DF FB 